Newaita-dark/actions/24/audio-volume-high.svg

<svg height="24" viewBox="0 0 24 24" width="24" xmlns="http://www.w3.org/2000/svg"><g fill="#e0e0e0"><path d="m10.910156 2.175781c-.007812 0-.015625 0-.023437 0-.285157.011719-.550781.140625-.730469.355469l-4.664062 5.597656h-.035157v7.929688h.035157l4.664062 5.597656c.265625.320312.703125.4375 1.09375.296875s.652344-.511719.652344-.925781v-17.863282c0-.546874-.445313-.988281-.992188-.988281zm-7.933594 5.953125c-.546874 0-.988281.445313-.988281.988282v5.953124c0 .546876.441407.988282.988281.988282h1.488282v-7.929688zm0 0"/><path d="m14.769531 7.03125c-.441406-.011719-.832031.269531-.964843.6875-.136719.414062.023437.871094.382812 1.117188 1.027344.71875 1.695312 1.898437 1.695312 3.257812 0 1.363281-.667968 2.542969-1.695312 3.261719-.292969.199219-.457031.542969-.429688.898437.03125.351563.25.664063.574219.8125.320313.152344.699219.113282.988281-.09375 1.535157-1.074218 2.535157-2.863281 2.535157-4.878906 0-2.011719-1-3.800781-2.535157-4.875-.160156-.117188-.351562-.183594-.550781-.1875zm0 0"/><path d="m17.046875 3.777344c-.4375-.011719-.832031.269531-.964844.683594-.132812.417968.023438.875.386719 1.121093 2.046875 1.433594 3.382812 3.800781 3.382812 6.511719 0 2.714844-1.335937 5.082031-3.382812 6.515625-.296875.199219-.460938.542969-.429688.898437.027344.355469.246094.664063.570313.816407.324219.148437.703125.109375.992187-.097657 2.558594-1.789062 4.222657-4.769531 4.222657-8.132812 0-3.359375-1.664063-6.339844-4.222657-8.128906-.164062-.117188-.355468-.183594-.554687-.1875zm0 0"/></g></svg>

<?xml version="1.0" encoding="UTF-8"?>
<svg xmlns="http://www.w3.org/2000/svg" xmlns:xlink="http://www.w3.org/1999/xlink" width="24px" height="24px" viewBox="0 0 24 24" version="1.1">
<g id="surface1">
<path style=" stroke:none;fill-rule:nonzero;fill:rgb(87.843138%,87.843138%,87.843138%);fill-opacity:1;" d="M 10.910156 2.175781 C 10.902344 2.175781 10.894531 2.175781 10.886719 2.175781 C 10.601562 2.1875 10.335938 2.316406 10.15625 2.53125 L 5.492188 8.128906 L 5.457031 8.128906 L 5.457031 16.058594 L 5.492188 16.058594 L 10.15625 21.65625 C 10.421875 21.976562 10.859375 22.09375 11.25 21.953125 C 11.640625 21.8125 11.902344 21.441406 11.902344 21.027344 L 11.902344 3.164062 C 11.902344 2.617188 11.457031 2.175781 10.910156 2.175781 Z M 2.976562 8.128906 C 2.429688 8.128906 1.988281 8.574219 1.988281 9.117188 L 1.988281 15.070312 C 1.988281 15.617188 2.429688 16.058594 2.976562 16.058594 L 4.464844 16.058594 L 4.464844 8.128906 Z M 2.976562 8.128906 "/>
<path style=" stroke:none;fill-rule:nonzero;fill:rgb(87.843138%,87.843138%,87.843138%);fill-opacity:1;" d="M 14.769531 7.03125 C 14.328125 7.019531 13.9375 7.300781 13.804688 7.71875 C 13.667969 8.132812 13.828125 8.589844 14.1875 8.835938 C 15.214844 9.554688 15.882812 10.734375 15.882812 12.09375 C 15.882812 13.457031 15.214844 14.636719 14.1875 15.355469 C 13.894531 15.554688 13.730469 15.898438 13.757812 16.253906 C 13.789062 16.605469 14.007812 16.917969 14.332031 17.066406 C 14.652344 17.21875 15.03125 17.179688 15.320312 16.972656 C 16.855469 15.898438 17.855469 14.109375 17.855469 12.09375 C 17.855469 10.082031 16.855469 8.292969 15.320312 7.21875 C 15.160156 7.101562 14.96875 7.035156 14.769531 7.03125 Z M 14.769531 7.03125 "/>
<path style=" stroke:none;fill-rule:nonzero;fill:rgb(87.843138%,87.843138%,87.843138%);fill-opacity:1;" d="M 17.046875 3.777344 C 16.609375 3.765625 16.214844 4.046875 16.082031 4.460938 C 15.949219 4.878906 16.105469 5.335938 16.46875 5.582031 C 18.515625 7.015625 19.851562 9.382812 19.851562 12.09375 C 19.851562 14.808594 18.515625 17.175781 16.46875 18.609375 C 16.171875 18.808594 16.007812 19.152344 16.039062 19.507812 C 16.066406 19.863281 16.285156 20.171875 16.609375 20.324219 C 16.933594 20.472656 17.3125 20.433594 17.601562 20.226562 C 20.160156 18.4375 21.824219 15.457031 21.824219 12.09375 C 21.824219 8.734375 20.160156 5.753906 17.601562 3.964844 C 17.4375 3.847656 17.246094 3.78125 17.046875 3.777344 Z M 17.046875 3.777344 "/>
</g>
</svg>
